X:11
T:Nordmannen
R:Folkevise
C:tekst : Ivar Aasen / melodi : Ludvig M. Lindeman
N:
D:Storm "Nordavind"
O:Norge - Norway - Norvège
Z:Eric Forgeot - http://anamnese.online.fr
M:4/4
L:1/8
Q:1/4=120
K:F
A>F |"Dm"D2 DE "Bb"F2 FG |"A"A4 "Dm"F2 AB |"F"c2 AF "C7"G2 EC | "F"F4 z2 A>B |!
"A7"G2 GA "Dm"F2 FG | "A"E4 A2 A^c | "Dm"d2 AB "A7"(AG) FE | "Dm"D4 z2 |]
W:Millom bakkar og berg ut med havet 
W:heve nordmannen fenge sin heim, 
W:der han sjølv heve tuftene grave  
W:og sett sjølv sine hus uppå deim. 
W:
W:Han såg ut på det steinute strender ; 
W:det var ingen som der hadde bygt. 
W:"Lat oss rydja og byggja oss grender, 
W:og så eiga me rudningen trygt." 
W:
W:Han såg ut på det bårute havet ; 
W:der var ruskut å leggja utpå ; 
W:men der leikade fisk nedi kavet, 
W:og den leiken, den ville han sjå. 
W:
W:Fram på vinteren stundom han tenkte : 
W:Gjev eg var i eit varmare land ! 
W:Men når vårsol i bakkane blekte, 
W:fekk han hug til si heimlege strand. 
W:
W:Og når liene grønkar som hagar, 
W:når det laver av blomar på strå, 
W:og når netter er ljose som dagar, 
W:kan han ingen stad vanare sjå. 
W:
W:Sud om havet han stundom laut skrida, 
W:der var rikdom på benkjer og bord, 
W:men ikring såg han trelldomen kvida 
W:og så vende han atter mot nord. 
W:
W:Lat no andre om storleiken kivast, 
W:lat deim bragla med rikdom og høgd, 
W:mellom kaksar eg inkje kan trivast, 
W:mellom jamninger helst er eg nøgd.

